!!!OTL: Erkundigung.
!!!OTL-incipit: WI KUMM ICH DANN
!!!ARE: Europa, Mitteleuropa, Deutschland, Koeln
!!!SCT: Z1158
!!!YEM: Copyright 1995, estate of Helmut Schaffrath.
**kern	**text
*ICvox	*
*M4/4	*
*met(c)	*
*k[b-e-]	*
*g:	*
!LO:TX:a:t=Aus Köln.	!
{4d	Wi
=1	=1
4g	kumm
4f#	ich
4g	dann
4a	de
=2	=2
4.b-/	Pohʒ
8a	e-
4g}	-ren?
{4dd	ſag'
=3	=3
4.b-	du,
8b-	mi
4.a	Lev-
8a	-chen,
=4	=4
2g	ſag'?
4r}	.
{4d	Wi
=5	=5
4.g	kumm
8f#	ich
4g	dann
4a	de
=6	=6
4.b-/	Pohʒ
8a	e-
4g}	-ren?
{4dd	ſag'
=7	=7
4.b-	du,
8b-	mi
(4.a	Lev-
8d)	-chen,
=8	=8
2g	ſag'?
2r}	.
=9	=9
{4.dd	Nemm
8a	de
4a	Reng
4a	un
=10	=10
4.b-/	ſchött'
8g	di
4g}	Klenk,
{4g	dann
=11	=11
4.a	mehnt
8d	mi
4d	Moor,
4d	et
=12	=12
4.g	däht
8g	der
4g}	Weng;
{4f#	kumm
=13	=13
4g	du,
4a	mi
4b-/	Lev-
4a	-chen,
=14	=14
2dd	kumm!
4r}	.
{4dd	kumm
=15	=15
4g	du,
4g	mi
4.a	Lev-
8f#	-chen,
=16	=16
2g	kumm!
4r}	.
==	==
!!!AGN: Liebes - Lied
!!!ONB: ESAC (Essen Associative Code) Database: ZUCCAL
!!!AMT: simple quadruple
!!!AIN: vox
!!!EED: Helmut Schaffrath
!!!EEV: 1.0
!!!GTL: V. Lieder der Minne.
!!!URL-scan: https://www.digitale-sammlungen.de/de/view/bsb11160573?page=341
!!!ENC: Anna Maria Matuszewska
!!!EEV: 2025/02/05
*-	*-
